X:1488
T:O'Reilly's Greyhound
R:reel
N:"collected from O'Reilly"
B:"O'Neill's Dance Music of Ireland, 1488"
T: cu ui ra.gallai.g.
Z:transcribed by John B. Walsh, 8/22/96
M:C|
L:1/8
K:G
(gf) "Segno" | edBA G2(BG) | Bdef gbag | egdB GFGA | Beed BAAg |
edBA G2(BG) | Bdef gbag | ((3efg) (dB) GFGA | Beed BA A2 Hx ||
eaag bgag | eaaf gdBd | eaag bgag | egdB GABd |
eaag bgag | eaaf g2 (ga) | bgag edef | gbaf g2 (fg) "Segno" ||


